icons/2_Variations/Friendica fg.var.svg

<svg width="1024" height="1024" viewBox="0 0 1024 1024" fill="none" xmlns="http://www.w3.org/2000/svg">
<g clip-path="url(#clip0_3_89)">
<path d="M512 1024C794.77 1024 1024 794.77 1024 512C1024 229.23 794.77 0 512 0C229.23 0 0 229.23 0 512C0 794.77 229.23 1024 512 1024Z" fill="#F9DE81"/>
<path d="M281.2 363.101V660.901C281.2 707.101 318.4 744.601 364.3 744.601H659.7C705.6 744.601 742.8 707.001 742.8 660.901V363.101C742.8 316.901 705.6 279.401 659.7 279.401H364.3C318.4 279.301 281.2 316.901 281.2 363.101ZM659.7 297.901C695.6 297.901 724.3 326.801 724.3 363.101V660.901C724.3 697.201 695.6 726.101 659.7 726.101H438.2V614.401H585.9L585.5 503.001L438.2 503.801V409.601H585.9V297.901H659.7Z" fill="#56595B"/>
</g>
<defs>
<clipPath id="clip0_3_89">
<rect width="1024" height="1024" fill="white"/>
</clipPath>
</defs>
</svg>

<svg xmlns="http://www.w3.org/2000/svg" viewBox="0 0 1024 1024">
   <circle cx="512" cy="512" r="512" style="fill:#febf19"/>
   <path d="M281.2 363.1v297.8c0 46.2 37.2 83.7 83.1 83.7h295.4c45.9 0 83.1-37.6 83.1-83.7V363.1c0-46.2-37.2-83.7-83.1-83.7H364.3c-45.9-.1-83.1 37.5-83.1 83.7zm378.5-65.2c35.9 0 64.6 28.9 64.6 65.2v297.8c0 36.3-28.7 65.2-64.6 65.2H438.2V614.4h147.7l-.4-111.4-147.3.8v-94.2h147.7V297.9h73.8z"/>
</svg>
